X:396
T:Can Ye Sew Cushions. RH.396
R:air
S:Rev.R.Harrison’s MS,c1815,Cumbria
O:England
A:Temple Sowerby,Cumbria
Z:vmp.Simon Wilson. Review PJH, 2008.
M:C
L:1/8
Q:2/4=50
K:G
“Slow”G|G>Bg>e d B2G|G>B(g>e)d3e|\
d>B(B>A) G>G(G>A)|B>A(A>G)G3G|!
(G>B)(g>e) dB2G|(G>B)g>ed3e|\
d<BB>A G>GG>A|B>AA>GG3||!
M:2/4
G|B3G D4|(AG)AB B2A2|B3G D3B|(A3G) G4|!
B3G D3D|AGAB A2G2|B3G D2B2|A3G G4|]

